svgs/sharp-solid/bars-progress.svg

<svg xmlns="http://www.w3.org/2000/svg" viewBox="0 0 512 512"><!--! Font Awesome Pro 6.6.0 by @fontawesome - https://fontawesome.com License - https://fontawesome.com/license (Commercial License) Copyright 2024 Fonticons, Inc. --><path d="M448 128l0 32-128 0 0-32 128 0zM64 64L0 64l0 64 0 32 0 64 64 0 384 0 64 0 0-64 0-32 0-64-64 0L64 64zM448 384l-256 0 0-32 256 0 0 32zM64 288L0 288l0 64 0 32 0 64 64 0 384 0 64 0 0-64 0-32 0-64-64 0L64 288z"/></svg>

<svg xmlns="http://www.w3.org/2000/svg" viewBox="0 0 512 512"><!--! Font Awesome Pro 6.4.2 by @fontawesome - https://fontawesome.com License - https://fontawesome.com/license (Commercial License) Copyright 2023 Fonticons, Inc. --><path d="M448 128v32H320V128H448zM64 64H0v64 32 64H64 448h64V160 128 64H448 64zM448 384H192V352H448v32zM64 288H0v64 32 64H64 448h64V384 352 288H448 64z"/></svg>
